en/_assets/api-gateway/spec-constructor/cloud-ydb.svg

<?xml version="1.0" encoding="UTF-8"?>
<svg xmlns="http://www.w3.org/2000/svg" xmlns:xlink="http://www.w3.org/1999/xlink" width="16px" height="16px" viewBox="0 0 16 16" version="1.1">
<g id="surface1">
<path style=" stroke:none;fill-rule:evenodd;fill:rgb(32.156863%,50.980392%,100%);fill-opacity:1;" d="M 16 1.5 C 16 2.328125 14.65625 3 13 3 C 11.34375 3 10 2.328125 10 1.5 C 10 0.671875 11.34375 0 13 0 C 14.65625 0 16 0.671875 16 1.5 Z M 5 11.601562 L 5 14.300781 C 5 15.199219 6.300781 15.898438 8 15.898438 C 9.699219 15.898438 11 15.199219 11 14.300781 L 11 11.601562 C 10.199219 12.300781 9.101562 12.601562 8 12.601562 C 6.898438 12.601562 5.800781 12.300781 5 11.601562 Z M 10 3 L 10 2.601562 C 10.800781 3.300781 11.898438 3.601562 13 3.601562 C 14.101562 3.601562 15.199219 3.300781 16 2.601562 L 16 5.398438 C 16 6.199219 14.800781 6.898438 13.199219 7 L 10.726562 9.871094 C 10.902344 10.0625 11 10.277344 11 10.5 C 11 11.328125 9.65625 12 8 12 C 6.34375 12 5 11.328125 5 10.5 C 5 10.292969 5.082031 10.097656 5.230469 9.921875 L 2.800781 7.101562 C 1.300781 7 0 6.300781 0 5.5 L 0 2.601562 C 0.800781 3.300781 1.898438 3.601562 3 3.601562 C 4.101562 3.601562 5.199219 3.300781 6 2.601562 L 6 3 Z M 9.722656 9.273438 C 9.238281 9.101562 8.640625 9 8 9 C 7.734375 9 7.476562 9.015625 7.234375 9.050781 C 6.847656 9.097656 6.457031 9.179688 6.101562 9.300781 L 4 6.898438 C 5.101562 6.699219 6 6.101562 6 5.398438 L 6 4 L 10 4 L 10 5.398438 C 10 6.101562 10.699219 6.699219 11.800781 6.898438 Z M 6 1.5 C 6 2.328125 4.65625 3 3 3 C 1.34375 3 0 2.328125 0 1.5 C 0 0.671875 1.34375 0 3 0 C 4.65625 0 6 0.671875 6 1.5 Z M 6 1.5 "/>
</g>
</svg>

<svg xmlns="http://www.w3.org/2000/svg" width="16" height="16" viewBox="0 0 16 16">
    <path d="M16 1.5c0 .828-1.344 1.5-3 1.5s-3-.672-3-1.5S11.344 0 13 0s3 .672 3 1.5ZM5 11.602V14.3c0 .898 1.3 1.597 3 1.597s3-.699 3-1.597v-2.7c-.8.7-1.898 1-3 1s-2.2-.3-3-1ZM10 3v-.398c.8.699 1.898 1 3 1s2.2-.301 3-1v2.796c0 .801-1.2 1.5-2.8 1.602l-2.473 2.871c.175.191.273.406.273.629 0 .828-1.344 1.5-3 1.5s-3-.672-3-1.5c0-.207.082-.402.23-.578L2.8 7.102C1.3 7 0 6.3 0 5.5V2.602c.8.699 1.898 1 3 1s2.2-.301 3-1V3Zm-.277 6.273A5.242 5.242 0 0 0 8 9c-.266 0-.523.016-.766.05a5.678 5.678 0 0 0-1.132.25L4 6.899c1.102-.199 2-.796 2-1.5V4h4v1.398c0 .704.7 1.301 1.8 1.5ZM6 1.5C6 2.328 4.656 3 3 3s-3-.672-3-1.5S1.344 0 3 0s3 .672 3 1.5Zm0 0" style="stroke:none;fill-rule:evenodd;fill:#5282ff;fill-opacity:1"/>
</svg>
